src/assets/dark/HeaderLogo.svg

<svg width="166" height="31" viewBox="0 0 166 31" fill="none" xmlns="http://www.w3.org/2000/svg">
<path d="M51.973 22.9224C47.2573 22.9224 44.1576 20.4677 44.1576 15.9888C44.1576 11.5099 47.2584 9.05519 51.973 9.05519C54.9231 9.05519 57.141 10.0456 58.433 12.0483L59.488 11.5099C58.0669 9.33517 55.5474 8 51.9946 8C46.353 8 43.0154 11.1449 43.0154 15.9888C43.0154 20.8327 46.353 23.9776 51.9514 23.9776C55.5474 23.9776 58.0669 22.6425 59.488 20.4678L58.433 19.9294C57.1617 21.9327 54.9231 22.9224 51.973 22.9224ZM64.3915 22.4702V16.3763H75.4163V15.3213H64.3903V9.48584H77.2455V8.4532H63.2717V23.5263H77.4629V22.4702H64.3915ZM82.6231 22.4702V8.45226H81.5034V23.5254H94.5309V22.4692L82.6231 22.4702ZM98.8991 22.4702V16.3763H109.924V15.3213H98.8991V9.48584H111.754V8.4532H97.7793V23.5263H111.97V22.4702H98.8991ZM123.012 15.2566C119.243 14.912 116.099 14.3523 116.099 12.2635C116.099 10.0456 119.566 9.03359 122.473 9.05519C125.143 9.07678 127.425 9.76562 128.933 11.3808L129.816 10.6486C128.244 9.0552 125.703 8 122.43 8C118.554 8 114.937 9.52879 114.937 12.2851C114.937 15.1275 118.727 15.9463 122.624 16.3118C126.952 16.7208 129.471 17.3022 129.471 19.391C129.471 21.4366 127.167 22.9224 123.012 22.9224C119.803 22.9224 117.069 21.9966 115.217 19.951L114.398 20.7475C116.358 22.8792 119.48 23.9776 122.969 23.9776C127.9 23.9776 130.613 21.9534 130.613 19.3264C130.613 16.5056 127.512 15.6443 123.012 15.2566ZM147.727 8.45226H131.9V9.46427H139.243V23.5254H140.361V9.46427H147.726L147.727 8.45226ZM152.08 22.4702V16.3763H163.105V15.3213H152.08V9.48584H164.934V8.4532H150.96V23.5263H165.15V22.4702H152.08Z" fill="white"/>
<path d="M16.4487 19.3518C26.7986 19.3518 32.2678 16.6424 32.6937 16.4211C32.7077 16.4127 32.7133 16.3986 32.7189 16.3846C32.7357 16.0932 32.7469 15.7991 32.7469 15.5021C32.7469 15.2051 32.7357 14.9109 32.7189 14.6195C32.7161 14.6055 32.7105 14.5887 32.6937 14.5831C32.2678 14.3617 26.7986 11.6523 16.4487 11.6523C6.09868 11.6523 0.629504 14.3589 0.203625 14.5803C0.189616 14.5887 0.184013 14.6027 0.178409 14.6167C0.161598 14.9109 0.150391 15.2023 0.150391 15.4993C0.150391 15.7963 0.161598 16.0904 0.178409 16.3818C0.181211 16.3958 0.186814 16.4127 0.203625 16.4183C0.629504 16.6396 6.09868 19.3518 16.4487 19.3518Z" fill="url(#paint0_radial)"/>
<path d="M16.4487 5.18359C9.93445 5.18359 5.35905 6.2567 2.75615 7.10565C1.66904 8.7027 0.881724 10.5015 0.472656 12.4319C0.483864 12.4403 0.500675 12.4431 0.514684 12.4375C1.84555 11.8211 7.19145 9.65532 16.4487 9.65532C25.706 9.65532 31.0519 11.8211 32.3827 12.4375C32.3967 12.4431 32.4136 12.4403 32.4248 12.4319C32.0157 10.5015 31.2284 8.7055 30.1413 7.10565C27.5356 6.2567 22.963 5.18359 16.4487 5.18359Z" fill="url(#paint1_radial)"/>
<path d="M4.87695 26.4141C7.83009 29.2467 11.9236 31.0007 16.4485 31.0007C20.9735 31.0007 25.067 29.2467 28.0201 26.4141C25.3191 27.0949 21.461 27.7281 16.4485 27.7281C11.436 27.7281 7.57792 27.0949 4.87695 26.4141Z" fill="url(#paint2_radial)"/>
<path d="M4.87695 4.58594C7.83009 1.75328 11.9236 -0.000665245 16.4485 -0.00066564C20.9735 -0.000666036 25.067 1.75328 28.0201 4.58594C25.3191 3.90509 21.461 3.27188 16.4485 3.27188C11.436 3.27188 7.57792 3.90509 4.87695 4.58594Z" fill="url(#paint3_radial)"/>
<path d="M16.4487 25.7764C9.93445 25.7764 5.35905 24.7033 2.75615 23.8543C1.66904 22.2573 0.881724 20.4585 0.472656 18.5281C0.483864 18.5196 0.500675 18.5168 0.514684 18.5224C1.84555 19.1388 7.19145 21.3047 16.4487 21.3047C25.706 21.3047 31.0519 19.1388 32.3827 18.5224C32.3967 18.5168 32.4136 18.5196 32.4248 18.5281C32.0157 20.4585 31.2284 22.2545 30.1413 23.8543C27.5356 24.7061 22.963 25.7764 16.4487 25.7764Z" fill="url(#paint4_radial)"/>
<defs>
<radialGradient id="paint0_radial" cx="0" cy="0" r="1" gradientUnits="userSpaceOnUse" gradientTransform="translate(-9.09566 11.7672) rotate(11.0664) scale(45.2505)">
<stop stop-color="#FEAE6F"/>
<stop offset="0.3156" stop-color="#FF9B73"/>
<stop offset="0.6313" stop-color="#D66F8D"/>
<stop offset="0.8553" stop-color="#8E54A5"/>
<stop offset="0.9909" stop-color="#6050B0"/>
</radialGradient>
<radialGradient id="paint1_radial" cx="0" cy="0" r="1" gradientUnits="userSpaceOnUse" gradientTransform="translate(2.81218 10.2269) rotate(9.14384) scale(41.4333 25.0568)">
<stop offset="0.0206505" stop-color="#FEAE6F"/>
<stop offset="0.496525" stop-color="#D66F8D"/>
<stop offset="0.795468" stop-color="#8E54A5"/>
<stop offset="0.983598" stop-color="#7652AB"/>
</radialGradient>
<radialGradient id="paint2_radial" cx="0" cy="0" r="1" gradientUnits="userSpaceOnUse" gradientTransform="translate(10.621 19.0462) scale(19.3845)">
<stop offset="0.0711" stop-color="#FF9B73"/>
<stop offset="0.2613" stop-color="#F4A575"/>
<stop offset="0.3683" stop-color="#EE977B"/>
<stop offset="0.5696" stop-color="#DF7389"/>
<stop offset="0.6072" stop-color="#DC6B8C"/>
<stop offset="0.6119" stop-color="#DA6B8D"/>
<stop offset="0.731" stop-color="#B06099"/>
<stop offset="0.8388" stop-color="#9259A2"/>
<stop offset="0.9307" stop-color="#8055A7"/>
<stop offset="0.9957" stop-color="#7953A9"/>
</radialGradient>
<radialGradient id="paint3_radial" cx="0" cy="0" r="1" gradientUnits="userSpaceOnUse" gradientTransform="translate(5.75394 10.5062) rotate(1.32452) scale(24.2423)">
<stop offset="0.109375" stop-color="#FEAE6F"/>
<stop offset="0.390625" stop-color="#FEAE6F"/>
<stop offset="0.640625" stop-color="#DF7389"/>
<stop offset="0.907479" stop-color="#B56398"/>
<stop offset="0.9957" stop-color="#7852AA"/>
</radialGradient>
<radialGradient id="paint4_radial" cx="0" cy="0" r="1" gradientUnits="userSpaceOnUse" gradientTransform="translate(-17.2209 18.4944) rotate(4.71153) scale(51.1663)">
<stop offset="0.0711" stop-color="#FF9B73"/>
<stop offset="0.390457" stop-color="#F4A575"/>
<stop offset="0.5892" stop-color="#DF7389"/>
<stop offset="0.64526" stop-color="#DC6B8C"/>
<stop offset="0.915" stop-color="#7953A9"/>
</radialGradient>
</defs>
</svg>

<svg width="166" height="31" fill="none" xmlns="http://www.w3.org/2000/svg"><path d="M51.973 22.922c-4.716 0-7.815-2.454-7.815-6.933 0-4.48 3.1-6.934 7.815-6.934 2.95 0 5.168.99 6.46 2.993l1.055-.538C58.067 9.335 55.548 8 51.995 8c-5.642 0-8.98 3.145-8.98 7.989 0 4.844 3.338 7.989 8.936 7.989 3.596 0 6.116-1.336 7.537-3.51l-1.055-.539c-1.271 2.004-3.51 2.993-6.46 2.993zm12.418-.452v-6.094h11.025v-1.055H64.39V9.486h12.856V8.453H63.272v15.073h14.19V22.47h-13.07zm18.232 0V8.452h-1.12v15.073h13.028V22.47l-11.908.001zm16.276 0v-6.094h11.025v-1.055H98.899V9.486h12.855V8.453H97.779v15.073h14.191V22.47H98.9zm24.113-7.213c-3.769-.345-6.913-.905-6.913-2.993 0-2.218 3.467-3.23 6.374-3.209 2.67.022 4.952.71 6.46 2.326l.883-.732C128.244 9.055 125.703 8 122.43 8c-3.876 0-7.493 1.529-7.493 4.285 0 2.842 3.79 3.661 7.687 4.027 4.328.409 6.847.99 6.847 3.079 0 2.046-2.304 3.531-6.459 3.531-3.209 0-5.943-.925-7.795-2.971l-.819.796c1.96 2.132 5.082 3.23 8.571 3.23 4.931 0 7.644-2.024 7.644-4.65 0-2.821-3.101-3.683-7.601-4.07zm24.715-6.805H131.9v1.012h7.343v14.061h1.118V9.465h7.365l.001-1.013zm4.353 14.018v-6.094h11.025v-1.055H152.08V9.486h12.854V8.453H150.96v15.073h14.19V22.47h-13.07z" fill="#fff"/><path d="M16.449 19.352c10.35 0 15.819-2.71 16.245-2.93.014-.01.02-.023.025-.037.017-.292.028-.586.028-.883 0-.297-.011-.591-.028-.883-.003-.014-.008-.03-.025-.036-.426-.221-5.895-2.93-16.245-2.93-10.35 0-15.82 2.706-16.245 2.927-.014.009-.02.023-.026.037-.016.294-.028.585-.028.882 0 .297.012.591.028.883.003.014.009.03.026.036.426.222 5.895 2.934 16.245 2.934z" fill="url(#paint0_radial)"/><path d="M16.449 5.184c-6.515 0-11.09 1.073-13.693 1.922a14.977 14.977 0 00-2.283 5.326.045.045 0 00.042.005c1.33-.616 6.676-2.782 15.934-2.782 9.257 0 14.603 2.166 15.934 2.783.014.005.03.002.042-.006a15 15 0 00-2.284-5.326c-2.605-.85-7.178-1.922-13.692-1.922z" fill="url(#paint1_radial)"/><path d="M4.877 26.414c2.953 2.833 7.047 4.587 11.571 4.587 4.526 0 8.619-1.754 11.572-4.587-2.7.68-6.559 1.314-11.572 1.314-5.012 0-8.87-.633-11.571-1.314z" fill="url(#paint2_radial)"/><path d="M4.877 4.586C7.83 1.753 11.924-.001 16.448-.001c4.526 0 8.619 1.754 11.572 4.587-2.7-.68-6.559-1.314-11.572-1.314-5.012 0-8.87.633-11.571 1.314z" fill="url(#paint3_radial)"/><path d="M16.449 25.776c-6.515 0-11.09-1.073-13.693-1.922a14.977 14.977 0 01-2.283-5.326.044.044 0 01.042-.006c1.33.617 6.676 2.783 15.934 2.783 9.257 0 14.603-2.166 15.934-2.783a.045.045 0 01.042.006 14.999 14.999 0 01-2.284 5.326c-2.605.852-7.178 1.922-13.692 1.922z" fill="url(#paint4_radial)"/><defs><radialGradient id="paint0_radial" cx="0" cy="0" r="1" gradientUnits="userSpaceOnUse" gradientTransform="rotate(11.066 -65.282 -41.062) scale(45.2505)"><stop stop-color="#FEAE6F"/><stop offset=".316" stop-color="#FF9B73"/><stop offset=".631" stop-color="#D66F8D"/><stop offset=".855" stop-color="#8E54A5"/><stop offset=".991" stop-color="#6050B0"/></radialGradient><radialGradient id="paint1_radial" cx="0" cy="0" r="1" gradientUnits="userSpaceOnUse" gradientTransform="rotate(9.144 -62.54 22.697) scale(41.4333 25.0568)"><stop offset=".021" stop-color="#FEAE6F"/><stop offset=".497" stop-color="#D66F8D"/><stop offset=".795" stop-color="#8E54A5"/><stop offset=".984" stop-color="#7652AB"/></radialGradient><radialGradient id="paint2_radial" cx="0" cy="0" r="1" gradientUnits="userSpaceOnUse" gradientTransform="translate(10.621 19.046) scale(19.3845)"><stop offset=".071" stop-color="#FF9B73"/><stop offset=".261" stop-color="#F4A575"/><stop offset=".368" stop-color="#EE977B"/><stop offset=".57" stop-color="#DF7389"/><stop offset=".607" stop-color="#DC6B8C"/><stop offset=".612" stop-color="#DA6B8D"/><stop offset=".731" stop-color="#B06099"/><stop offset=".839" stop-color="#9259A2"/><stop offset=".931" stop-color="#8055A7"/><stop offset=".996" stop-color="#7953A9"/></radialGradient><radialGradient id="paint3_radial" cx="0" cy="0" r="1" gradientUnits="userSpaceOnUse" gradientTransform="rotate(1.325 -451.578 254.145) scale(24.2423)"><stop offset=".109" stop-color="#FEAE6F"/><stop offset=".391" stop-color="#FEAE6F"/><stop offset=".641" stop-color="#DF7389"/><stop offset=".907" stop-color="#B56398"/><stop offset=".996" stop-color="#7852AA"/></radialGradient><radialGradient id="paint4_radial" cx="0" cy="0" r="1" gradientUnits="userSpaceOnUse" gradientTransform="rotate(4.712 -233.39 -200.054) scale(51.1663)"><stop offset=".071" stop-color="#FF9B73"/><stop offset=".39" stop-color="#F4A575"/><stop offset=".589" stop-color="#DF7389"/><stop offset=".645" stop-color="#DC6B8C"/><stop offset=".915" stop-color="#7953A9"/></radialGradient></defs></svg>
